X: 19
T: ONE NIGHT IN THE SHIELING
T: Way up in Clachan
S: "Community Dances Manual 6", EFDSS, Jack Hamilton ed., 1981 p.15
R: waltz
Z: 2010 John Chambers <jc:trillian.mit.edu>
M: 3/4
L: 1/8
K: G
D2 |\
"G"G3 B d2 | "G"d2 B2 d2 | "C"e2 c2 e2 | "G"d2 B2 d2 |\
"G"G3 B d2 | "G"d2 B2 d2 | "A7"e2 A2 A2 | "D7"A4 BA |
"G"G3 B d2 | "G"d2 B2 d2 | "C"e2 c2 e2 | "G"d2 B2 GA |\
"G"B3 B B2 | "Am"d2 c2 A2 | "D7"A2 G2 A2 | "G" G4 ||
d2 |\
"G"g2 g g2 | "C"g2 f2 e2 | "D7"d2 e2 d2 | "G"B2 A2 G2 |\
"Em"g3 g g2 | "Am"g2 f2 e2 | "G"d2 c2 B2 | "D7"A4 d2 |
"G"g2 g g2 | "A7"g2 f2 e2 | "D7"d2 e2 d2 | "G"B2 A2 G2 |\
"G"B3 B B2 | "D7"d2 c2 A2 | "C"A2 G2 G2 | "G" G4 |]

%%sep 2 1 500
%%sep 1 1 500

